TV/Source/AXN White - Dark.svg

<svg height="3.377004mm" viewBox="0 0 8.3998241 3.3770037" width="8.399824mm" xmlns="http://www.w3.org/2000/svg" xmlns:xlink="http://www.w3.org/1999/xlink"><clipPath id="a"><path d="m610.299 388.237h23.811v9.572h-23.811z"/></clipPath><clipPath id="b"><path d="m616.846 392.451h.002l-.991.99z"/></clipPath><linearGradient id="c" gradientTransform="matrix(3.1273131 0 0 -3.1273131 614.76318 393.04691)" gradientUnits="userSpaceOnUse" spreadMethod="pad" x1="0" x2="1" y1="0" y2="0"><stop offset="0" stop-color="#2e2e30"/><stop offset="1" stop-color="#28292a"/></linearGradient><linearGradient id="d"><stop offset="0" stop-color="#2e2e30"/><stop offset="1" stop-color="#222526"/></linearGradient><linearGradient id="e" gradientTransform="matrix(1.7860179 -1.7860179 -1.7860179 -1.7860179 616.84711 393.6395)" gradientUnits="userSpaceOnUse" spreadMethod="pad" x1="0" x2="1" xlink:href="#d" y1="0" y2="0"/><linearGradient id="f"><stop offset="0" stop-color="#fff"/><stop offset="1" stop-color="#a4a7a6"/></linearGradient><linearGradient id="g" gradientTransform="matrix(1.7860179 -1.7860179 -1.7860179 -1.7860179 616.84711 393.6395)" gradientUnits="userSpaceOnUse" spreadMethod="pad" x1="0" x2="1" xlink:href="#f" y1="0" y2="0"/><linearGradient id="h" gradientTransform="matrix(1.7860439 -1.7860439 -1.7860439 -1.7860439 621.61072 393.64221)" gradientUnits="userSpaceOnUse" spreadMethod="pad" x1="0" x2="1" xlink:href="#d" y1="0" y2="0"/><linearGradient id="i" gradientTransform="matrix(1.7860439 -1.7860439 -1.7860439 -1.7860439 621.61072 393.64221)" gradientUnits="userSpaceOnUse" spreadMethod="pad" x1="0" x2="1" xlink:href="#f" y1="0" y2="0"/><g transform="translate(-51.934705 -101.33115)"><path d="m0 0h-2.381" fill="#2d2e30" transform="matrix(.35278557 0 0 -.35278557 57.395296 101.33115)"/><g fill="#e6d596"><path d="m15.853516 9.1035156 1.023437 3.5976564h.703125.0098l.554687-2.7363282.552735 2.7363282h.0098.703125l1.023438-3.5976564h-.455078c-.186671 0-.311713.09396-.373047.2792969l-.546944 2.2539065-.515625-2.5332034h-.01172-.775391-.01172l-.515622 2.5332034-.546875-2.2539065c-.061335-.1853374-.186376-.2792969-.373047-.2792969z" transform="matrix(.264583331843 0 0 .264583331843 51.934704827129 101.331149857579)"/><path d="m0 0c-.145 0-.256-.052-.333-.155-.078-.109-.117-.251-.117-.426v-1.078h-.527v2.698h.264c.176 0 .263-.088.263-.264v-.628c.269.31.6.396.993.256.294-.108.434-.39.418-.845v-1.217h-.527v1.078c0 .201-.036.343-.108.426-.083.103-.192.155-.326.155" transform="matrix(.35278557 0 0 -.35278557 57.729031 104.10633)"/><path d="m58.245544 103.95048c.06033 0 .09031.03.09031.0903v.65089h-.185918v-.7412zm0-.21061c.06209 0 .09208.03.09031.0903v.0547h-.185918v-.14499z"/><path d="m0 0c-.031.279-.16.419-.388.419-.227 0-.361-.14-.403-.419zm.527-.636c-.062-.237-.165-.41-.31-.519-.17-.114-.372-.171-.605-.171-.635.021-.953.388-.953 1.101s.32 1.073.961 1.078c.667 0 .98-.411.938-1.233h-1.356c.02-.32.16-.48.418-.48.124 0 .23631082.0508066.341.147.05802191.0533133.11914874.077.179.077z" transform="matrix(.35278557 0 0 -.35278557 59.259486 104.24036)"/></g><path d="m0 0 .595-.598h-1.191zm16.663 2.382-2.377-2.377-2.385 2.377-3.573-3.572-1.187 1.186 3.574 3.574h-2.382l-2.384-2.384-1.185 1.192-2.384.001 2.38-2.378-1.19-1.194-3.571 3.572-4.763-4.762h2.381l.595.595h3.572l.596-.595-1.786-1.786h2.381l2.978 2.983 1.188-1.191h2.382l2.382 2.382 2.382-2.382 4.759 4.76z" fill="#2d2e30" transform="matrix(.35278557 0 0 -.35278557 53.615375 102.59063)"/><path d="m622.204 394.235 1.187-1.186.001.002-1.186 1.185zm-1.19-1.185 1.192-1.194.006.007h-.008l-1.187 1.19z" fill="url(#i)" transform="matrix(.35278557 0 0 -.35278557 -163.37019 241.67263)"/><path d="m619.828 394.238 1.186-1.188.003.003 1.187-1.19h.008l1.185 1.183-.005.005-.001-.002-1.187 1.186.002.001-1.191 1.19z" fill="url(#h)" transform="matrix(.35278557 0 0 -.35278557 -163.37019 241.67263)"/><path d="m615.065 394.235.593-.593h.001l-.593.595zm1.781-1.784.118-.118.478-.478.001.001-.595.595z" fill="url(#g)" transform="matrix(.35278557 0 0 -.35278557 -163.37019 241.67263)"/><path d="m615.066 394.237.593-.595h-.001l.199-.201.991-.99.595-.595-.001-.001.001-.001 1.191 1.189-2.381 2.38zm1.78-1.786h.002z" fill="url(#e)" transform="matrix(.35278557 0 0 -.35278557 -163.37019 241.67263)"/><path d="m613.872 393.642-1.192-1.191h4.166l-.989.99-.199.201z" fill="url(#c)" transform="matrix(.35278557 0 0 -.35278557 -163.37019 241.67263)"/><g clip-path="url(#b)" transform="matrix(.35278557 0 0 -.35278557 -163.37019 241.67263)"><g transform="matrix(2.3999999 0 0 -2.3999999 615.35995 394.07998)"><image height="1" image-rendering="optimizeSpeed" preserveAspectRatio="none" transform="matrix(1 0 0 -1 0 1)" width="1" xlink:href="data:image/png;base64,iVBORw0KGgoAAAANSUhEUgAAAAUAAAAFCAYAAACNbyblAAAABHNCSVQICAgIfAhkiAAAADlJREFUCJk9i8ENwCAQw+yo0yC6/3Tc9QE0USTnYcd8u7tZVdRZZMdbJbpBwUiURyUABijq/uP/+gcq+w+cxRqGEwAAAABJRU5ErkJggg=="/></g></g><g clip-path="url(#a)" transform="matrix(.35278557 0 0 -.35278557 -163.37019 241.67263)"><g transform="translate(626.9662 393.6422)"><path d="m0 0-1.786-1.786h1.786 1.786z" fill="#f1e7c0"/></g><g transform="translate(628.7523 391.8562)"><path d="m0 0-1.786 1.786.595-1.786z" fill="#ccbc8b"/></g></g><path d="m24.542969 9.1035156v.546875 2.5136714c-.0067.310674.123332.476001.388672.5.265339.024.511609.02586.738281.0059v-.53711h-.216797c-.137336.000001-.207031-.05844-.207031-.175781v-1.550821l.07227-.002h.03711c.216869 0 .320651-.103934.314453-.314453v-.035109-.1562505h-.423833v-.2480469-.1953125-.0097656c.006668-.2271893-.106671-.3410864-.339844-.3417969z" fill="#e6d596" transform="matrix(.264583331843 0 0 .264583331843 51.934704969254 101.331149995539)"/></g></svg>

<?xml version="1.0" encoding="UTF-8" standalone="no"?>
<!-- Created with Inkscape (http://www.inkscape.org/) -->

<svg
   xmlns:dc="http://purl.org/dc/elements/1.1/"
   xmlns:cc="http://creativecommons.org/ns#"
   xmlns:rdf="http://www.w3.org/1999/02/22-rdf-syntax-ns#"
   xmlns:svg="http://www.w3.org/2000/svg"
   xmlns="http://www.w3.org/2000/svg"
   xmlns:xlink="http://www.w3.org/1999/xlink"
   xmlns:sodipodi="http://sodipodi.sourceforge.net/DTD/sodipodi-0.dtd"
   xmlns:inkscape="http://www.inkscape.org/namespaces/inkscape"
   width="8.3998241mm"
   height="3.3770037mm"
   viewBox="0 0 8.3998241 3.3770037"
   version="1.1"
   id="svg51486"
   inkscape:version="0.92.0 r15299"
   sodipodi:docname="AXN White - Dark.svg">
  <defs
     id="defs51480">
    <clipPath
       clipPathUnits="userSpaceOnUse"
       id="clipPath4290">
      <path
         d="M 610.299,422.945 H 634.11 V 430 h -23.811 z"
         id="path4288"
         inkscape:connector-curvature="0" />
    </clipPath>
    <clipPath
       clipPathUnits="userSpaceOnUse"
       id="clipPath4278">
      <path
         d="m 616.265,425.117 h 0.004 l -0.977,0.974 z"
         id="path4276"
         inkscape:connector-curvature="0" />
    </clipPath>
    <linearGradient
       x1="0"
       y1="0"
       x2="1"
       y2="0"
       gradientUnits="userSpaceOnUse"
       gradientTransform="matrix(2.8506563,0,0,-2.8506563,614.36829,425.65848)"
       spreadMethod="pad"
       id="linearGradient4268">
      <stop
         style="stop-opacity:1;stop-color:#2e2e30"
         offset="0"
         id="stop4264" />
      <stop
         style="stop-opacity:1;stop-color:#28292a"
         offset="1"
         id="stop4266" />
    </linearGradient>
    <linearGradient
       x1="0"
       y1="0"
       x2="1"
       y2="0"
       gradientUnits="userSpaceOnUse"
       gradientTransform="matrix(1.6280183,-1.6280183,-1.6280183,-1.6280183,616.26788,426.19864)"
       spreadMethod="pad"
       id="linearGradient4248">
      <stop
         style="stop-opacity:1;stop-color:#2e2e30"
         offset="0"
         id="stop4242" />
      <stop
         style="stop-opacity:1;stop-color:#222526"
         offset="1"
         id="stop4244" />
      <stop
         style="stop-opacity:1;stop-color:#222526"
         offset="1"
         id="stop4246" />
    </linearGradient>
    <linearGradient
       x1="0"
       y1="0"
       x2="1"
       y2="0"
       gradientUnits="userSpaceOnUse"
       gradientTransform="matrix(1.6280183,-1.6280183,-1.6280183,-1.6280183,616.26788,426.19864)"
       spreadMethod="pad"
       id="linearGradient4226">
      <stop
         style="stop-opacity:1;stop-color:#ffffff"
         offset="0"
         id="stop4220" />
      <stop
         style="stop-opacity:1;stop-color:#a4a7a6"
         offset="1"
         id="stop4222" />
      <stop
         style="stop-opacity:1;stop-color:#a4a7a6"
         offset="1"
         id="stop4224" />
    </linearGradient>
    <linearGradient
       x1="0"
       y1="0"
       x2="1"
       y2="0"
       gradientUnits="userSpaceOnUse"
       gradientTransform="matrix(1.628042,-1.628042,-1.628042,-1.628042,620.61011,426.20111)"
       spreadMethod="pad"
       id="linearGradient4204">
      <stop
         style="stop-opacity:1;stop-color:#2e2e30"
         offset="0"
         id="stop4198" />
      <stop
         style="stop-opacity:1;stop-color:#222526"
         offset="1"
         id="stop4200" />
      <stop
         style="stop-opacity:1;stop-color:#222526"
         offset="1"
         id="stop4202" />
    </linearGradient>
    <linearGradient
       x1="0"
       y1="0"
       x2="1"
       y2="0"
       gradientUnits="userSpaceOnUse"
       gradientTransform="matrix(1.628042,-1.628042,-1.628042,-1.628042,620.61011,426.20111)"
       spreadMethod="pad"
       id="linearGradient4182">
      <stop
         style="stop-opacity:1;stop-color:#ffffff"
         offset="0"
         id="stop4176" />
      <stop
         style="stop-opacity:1;stop-color:#a4a7a6"
         offset="1"
         id="stop4178" />
      <stop
         style="stop-opacity:1;stop-color:#a4a7a6"
         offset="1"
         id="stop4180" />
    </linearGradient>
    <clipPath
       clipPathUnits="userSpaceOnUse"
       id="clipPath4146">
      <path
         d="M 610.299,422.945 H 634.11 V 430 h -23.811 z"
         id="path4144"
         inkscape:connector-curvature="0" />
    </clipPath>
    <clipPath
       clipPathUnits="userSpaceOnUse"
       id="clipPath4690">
      <path
         d="m 610.299,388.237 h 23.811 v 9.572 h -23.811 z"
         id="path4688"
         inkscape:connector-curvature="0" />
    </clipPath>
    <clipPath
       clipPathUnits="userSpaceOnUse"
       id="clipPath4678">
      <path
         d="m 616.846,392.451 h 0.002 l -0.991,0.99 z"
         id="path4676"
         inkscape:connector-curvature="0" />
    </clipPath>
    <linearGradient
       x1="0"
       y1="0"
       x2="1"
       y2="0"
       gradientUnits="userSpaceOnUse"
       gradientTransform="matrix(3.1273131,0,0,-3.1273131,614.76318,393.04691)"
       spreadMethod="pad"
       id="linearGradient4668">
      <stop
         style="stop-opacity:1;stop-color:#2e2e30"
         offset="0"
         id="stop4664" />
      <stop
         style="stop-opacity:1;stop-color:#28292a"
         offset="1"
         id="stop4666" />
    </linearGradient>
    <linearGradient
       x1="0"
       y1="0"
       x2="1"
       y2="0"
       gradientUnits="userSpaceOnUse"
       gradientTransform="matrix(1.7860179,-1.7860179,-1.7860179,-1.7860179,616.84711,393.6395)"
       spreadMethod="pad"
       id="linearGradient4648">
      <stop
         style="stop-opacity:1;stop-color:#2e2e30"
         offset="0"
         id="stop4642" />
      <stop
         style="stop-opacity:1;stop-color:#222526"
         offset="1"
         id="stop4644" />
      <stop
         style="stop-opacity:1;stop-color:#222526"
         offset="1"
         id="stop4646" />
    </linearGradient>
    <linearGradient
       x1="0"
       y1="0"
       x2="1"
       y2="0"
       gradientUnits="userSpaceOnUse"
       gradientTransform="matrix(1.7860179,-1.7860179,-1.7860179,-1.7860179,616.84711,393.6395)"
       spreadMethod="pad"
       id="linearGradient4626">
      <stop
         style="stop-opacity:1;stop-color:#ffffff"
         offset="0"
         id="stop4620" />
      <stop
         style="stop-opacity:1;stop-color:#a4a7a6"
         offset="1"
         id="stop4622" />
      <stop
         style="stop-opacity:1;stop-color:#a4a7a6"
         offset="1"
         id="stop4624" />
    </linearGradient>
    <linearGradient
       x1="0"
       y1="0"
       x2="1"
       y2="0"
       gradientUnits="userSpaceOnUse"
       gradientTransform="matrix(1.7860439,-1.7860439,-1.7860439,-1.7860439,621.61072,393.64221)"
       spreadMethod="pad"
       id="linearGradient4604">
      <stop
         style="stop-opacity:1;stop-color:#2e2e30"
         offset="0"
         id="stop4598" />
      <stop
         style="stop-opacity:1;stop-color:#222526"
         offset="1"
         id="stop4600" />
      <stop
         style="stop-opacity:1;stop-color:#222526"
         offset="1"
         id="stop4602" />
    </linearGradient>
    <linearGradient
       x1="0"
       y1="0"
       x2="1"
       y2="0"
       gradientUnits="userSpaceOnUse"
       gradientTransform="matrix(1.7860439,-1.7860439,-1.7860439,-1.7860439,621.61072,393.64221)"
       spreadMethod="pad"
       id="linearGradient4582">
      <stop
         style="stop-opacity:1;stop-color:#ffffff"
         offset="0"
         id="stop4576" />
      <stop
         style="stop-opacity:1;stop-color:#a4a7a6"
         offset="1"
         id="stop4578" />
      <stop
         style="stop-opacity:1;stop-color:#a4a7a6"
         offset="1"
         id="stop4580" />
    </linearGradient>
    <clipPath
       clipPathUnits="userSpaceOnUse"
       id="clipPath4534">
      <path
         d="m 610.299,388.237 h 23.811 v 9.572 h -23.811 z"
         id="path4532"
         inkscape:connector-curvature="0" />
    </clipPath>
    <clipPath
       clipPathUnits="userSpaceOnUse"
       id="clipPath4290-3">
      <path
         d="M 610.299,422.945 H 634.11 V 430 h -23.811 z"
         id="path4288-8"
         inkscape:connector-curvature="0" />
    </clipPath>
  </defs>
  <sodipodi:namedview
     id="base"
     pagecolor="#ffffff"
     bordercolor="#666666"
     borderopacity="1.0"
     inkscape:pageopacity="0.0"
     inkscape:pageshadow="2"
     inkscape:zoom="22.627417"
     inkscape:cx="15.521961"
     inkscape:cy="13.846236"
     inkscape:document-units="mm"
     inkscape:current-layer="layer1"
     showgrid="false"
     fit-margin-top="0"
     fit-margin-left="0"
     fit-margin-right="0"
     fit-margin-bottom="0"
     inkscape:window-width="1920"
     inkscape:window-height="1017"
     inkscape:window-x="-8"
     inkscape:window-y="-8"
     inkscape:window-maximized="1" />
  <metadata
     id="metadata51483">
    <rdf:RDF>
      <cc:Work
         rdf:about="">
        <dc:format>image/svg+xml</dc:format>
        <dc:type
           rdf:resource="http://purl.org/dc/dcmitype/StillImage" />
        <dc:title></dc:title>
      </cc:Work>
    </rdf:RDF>
  </metadata>
  <g
     inkscape:label="Layer 1"
     inkscape:groupmode="layer"
     id="layer1"
     transform="translate(-51.934705,-101.33115)">
    <g
       id="g4536"
       transform="matrix(0.35278557,0,0,-0.35278557,57.395296,101.33115)">
      <path
         d="M 0,0 H -2.381"
         style="fill:#2d2e30;fill-opacity:1;fill-rule:nonzero;stroke:none"
         id="path4538"
         inkscape:connector-curvature="0" />
    </g>
    <g
       id="g4540"
       transform="matrix(0.35278557,0,0,-0.35278557,56.129502,103.73989)">
      <path
         style="fill:#e6d596;fill-opacity:1;fill-rule:nonzero;stroke:none;stroke-width:1.33336282"
         d="m 15.853516,9.1035156 1.023437,3.5976564 h 0.703125 0.0098 L 18.144565,9.9648438 18.6973,12.701172 h 0.0098 0.703125 l 1.023438,-3.5976564 h -0.455078 c -0.186671,0 -0.311713,0.09396 -0.373047,0.2792969 L 19.058594,11.636719 18.542969,9.1035156 h -0.01172 -0.775391 -0.01172 L 17.228516,11.636719 16.681641,9.3828125 C 16.620306,9.1974751 16.495265,9.1035156 16.308594,9.1035156 Z"
         transform="matrix(0.74998343,0,0,-0.74998343,-11.890501,6.8277736)"
         id="path4542"
         inkscape:connector-curvature="0" />
    </g>
    <g
       id="g4544"
       transform="matrix(0.35278557,0,0,-0.35278557,57.729031,104.10633)">
      <path
         d="M 0,0 C -0.145,0 -0.256,-0.052 -0.333,-0.155 -0.411,-0.264 -0.45,-0.406 -0.45,-0.581 v -1.078 h -0.527 v 2.698 h 0.264 c 0.176,0 0.263,-0.088 0.263,-0.264 V 0.147 c 0.269,0.31 0.6,0.396 0.993,0.256 0.294,-0.108 0.434,-0.39 0.418,-0.845 V -1.659 H 0.434 v 1.078 c 0,0.201 -0.036,0.343 -0.108,0.426 C 0.243,-0.052 0.134,0 0,0"
         style="fill:#e6d596;fill-opacity:1;fill-rule:nonzero;stroke:none"
         id="path4546"
         inkscape:connector-curvature="0" />
    </g>
    <path
       inkscape:connector-curvature="0"
       id="path4550"
       style="fill:#e6d596;fill-opacity:1;fill-rule:nonzero;stroke:none;stroke-width:0.35278556"
       d="m 58.245544,103.95048 c 0.06033,0 0.09031,0.03 0.09031,0.0903 v 0.65089 h -0.185918 v -0.7412 z m 0,-0.21061 c 0.06209,0 0.09208,0.03 0.09031,0.0903 v 0.0547 h -0.185918 v -0.14499 z" />
    <g
       id="g4556"
       transform="matrix(0.35278557,0,0,-0.35278557,59.259486,104.24036)">
      <path
         d="M 0,0 C -0.031,0.279 -0.16,0.419 -0.388,0.419 -0.615,0.419 -0.749,0.279 -0.791,0 Z m 0.527,-0.636 c -0.062,-0.237 -0.165,-0.41 -0.31,-0.519 -0.17,-0.114 -0.372,-0.171 -0.605,-0.171 -0.635,0.021 -0.953,0.388 -0.953,1.101 0,0.713 0.32,1.073 0.961,1.078 0.667,0 0.98,-0.411 0.938,-1.233 h -1.356 c 0.02,-0.32 0.16,-0.48 0.418,-0.48 0.124,0 0.23631082,0.0508066 0.341,0.147 0.05802191,0.0533133 0.11914874,0.077 0.179,0.077 z"
         style="fill:#e6d596;fill-opacity:1;fill-rule:nonzero;stroke:none"
         id="path4558"
         inkscape:connector-curvature="0"
         sodipodi:nodetypes="cscccccscccsssc" />
    </g>
    <g
       id="g4560"
       transform="matrix(0.35278557,0,0,-0.35278557,53.615375,102.59063)">
      <path
         d="M 0,0 0.595,-0.598 H -0.596 L 0,0 M 16.663,2.382 14.286,0.005 11.901,2.382 8.328,-1.19 7.141,-0.004 10.715,3.57 H 8.333 L 5.949,1.186 4.764,2.378 2.38,2.379 4.76,0.001 3.57,-1.193 -0.001,2.379 -4.764,-2.383 h 2.381 l 0.595,0.595 H 1.784 L 2.38,-2.383 0.594,-4.169 h 2.381 l 2.978,2.983 1.188,-1.191 h 2.382 l 2.382,2.382 2.382,-2.382 4.759,4.76 z"
         style="fill:#2d2e30;fill-opacity:1;fill-rule:nonzero;stroke:none"
         id="path4562"
         inkscape:connector-curvature="0" />
    </g>
    <g
       transform="matrix(0.35278557,0,0,-0.35278557,-163.37019,241.67263)"
       id="g4564">
      <g
         id="g4566">
        <g
           id="g4572">
          <g
             id="g4574">
            <path
               d="m 622.204,394.235 1.187,-1.186 0.001,0.002 -1.186,1.185 z m -1.19,-1.185 1.192,-1.194 0.006,0.007 h -0.008 l -1.187,1.19 z"
               style="fill:url(#linearGradient4582);stroke:none"
               id="path4584"
               inkscape:connector-curvature="0" />
          </g>
        </g>
      </g>
    </g>
    <g
       transform="matrix(0.35278557,0,0,-0.35278557,-163.37019,241.67263)"
       id="g4586">
      <g
         id="g4588">
        <g
           id="g4594">
          <g
             id="g4596">
            <path
               d="m 619.828,394.238 1.186,-1.188 0.003,0.003 1.187,-1.19 h 0.008 l 1.185,1.183 -0.005,0.005 -0.001,-0.002 -1.187,1.186 0.002,10e-4 -1.191,1.19 z"
               style="fill:url(#linearGradient4604);stroke:none"
               id="path4606"
               inkscape:connector-curvature="0" />
          </g>
        </g>
      </g>
    </g>
    <g
       transform="matrix(0.35278557,0,0,-0.35278557,-163.37019,241.67263)"
       id="g4608">
      <g
         id="g4610">
        <g
           id="g4616">
          <g
             id="g4618">
            <path
               d="m 615.065,394.235 0.593,-0.593 h 10e-4 l -0.593,0.595 z m 1.781,-1.784 0.118,-0.118 0.478,-0.478 10e-4,10e-4 -0.595,0.595 z"
               style="fill:url(#linearGradient4626);stroke:none"
               id="path4628"
               inkscape:connector-curvature="0" />
          </g>
        </g>
      </g>
    </g>
    <g
       transform="matrix(0.35278557,0,0,-0.35278557,-163.37019,241.67263)"
       id="g4630">
      <g
         id="g4632">
        <g
           id="g4638">
          <g
             id="g4640">
            <path
               d="m 615.066,394.237 0.593,-0.595 h -10e-4 l 0.199,-0.201 0.991,-0.99 0.595,-0.595 -10e-4,-10e-4 10e-4,-0.001 1.191,1.189 -2.381,2.38 z m 1.78,-1.786 h 0.002 z"
               style="fill:url(#linearGradient4648);stroke:none"
               id="path4650"
               inkscape:connector-curvature="0" />
          </g>
        </g>
      </g>
    </g>
    <g
       transform="matrix(0.35278557,0,0,-0.35278557,-163.37019,241.67263)"
       id="g4652">
      <g
         id="g4654">
        <g
           id="g4660">
          <g
             id="g4662">
            <path
               d="m 613.872,393.642 -1.192,-1.191 h 4.166 l -0.989,0.99 -0.199,0.201 z"
               style="fill:url(#linearGradient4668);stroke:none"
               id="path4670"
               inkscape:connector-curvature="0" />
          </g>
        </g>
      </g>
    </g>
    <g
       transform="matrix(0.35278557,0,0,-0.35278557,-163.37019,241.67263)"
       id="g4672">
      <g
         id="g4674"
         clip-path="url(#clipPath4678)">
        <g
           id="g4680"
           transform="matrix(2.3999999,0,0,-2.3999999,615.35995,394.07998)">
          <image
             width="1"
             height="1"
             style="image-rendering:optimizeSpeed"
             preserveAspectRatio="none"
             transform="matrix(1,0,0,-1,0,1)"
             xlink:href="data:image/png;base64,iVBORw0KGgoAAAANSUhEUgAAAAUAAAAFCAYAAACNbyblAAAABHNCSVQICAgIfAhkiAAAADlJREFUCJk9i8ENwCAQw+yo0yC6/3Tc9QE0USTnYcd8u7tZVdRZZMdbJbpBwUiURyUABijq/uP/+gcq+w+cxRqGEwAAAABJRU5ErkJggg=="
             id="image4682" />
        </g>
      </g>
    </g>
    <g
       transform="matrix(0.35278557,0,0,-0.35278557,-163.37019,241.67263)"
       id="g4684">
      <g
         id="g4686"
         clip-path="url(#clipPath4690)">
        <g
           id="g4692"
           transform="translate(626.9662,393.6422)">
          <path
             d="M 0,0 -1.786,-1.786 H 0 1.786 Z"
             style="fill:#f1e7c0;fill-opacity:1;fill-rule:nonzero;stroke:none"
             id="path4694"
             inkscape:connector-curvature="0" />
        </g>
        <g
           id="g4696"
           transform="translate(628.7523,391.8562)">
          <path
             d="M 0,0 -1.786,1.786 -1.191,0 Z"
             style="fill:#ccbc8b;fill-opacity:1;fill-rule:nonzero;stroke:none"
             id="path4698"
             inkscape:connector-curvature="0" />
        </g>
      </g>
    </g>
    <g
       id="g4667">
      <g
         transform="matrix(0.35278557,0,0,-0.35278557,58.531019,104.68201)"
         id="g4552">
        <path
           style="fill:#e6d596;fill-opacity:1;fill-rule:nonzero;stroke:none;stroke-width:1.33336282"
           d="m 24.542969,9.1035156 v 0.546875 2.5136714 c -0.0067,0.310674 0.123332,0.476001 0.388672,0.5 0.265339,0.024 0.511609,0.02586 0.738281,0.0059 v -0.53711 h -0.216797 c -0.137336,1e-6 -0.207031,-0.05844 -0.207031,-0.175781 V 10.40625 l 0.07227,-0.002 h 0.03711 c 0.216869,0 0.320651,-0.103934 0.314453,-0.314453 V 10.054688 9.8984375 H 25.246094 V 9.6503906 9.4550781 9.4453125 C 25.252762,9.2181232 25.139423,9.1042261 24.90625,9.1035156 Z"
           transform="matrix(0.74998343,0,0,-0.74998343,-18.6978,9.498291)"
           id="path4554"
           inkscape:connector-curvature="0" />
      </g>
    </g>
    <g
       id="g4540-2"
       transform="matrix(-0.35278557,0,0,-0.35278557,57.340968,103.73989)" />
  </g>
</svg>
